images/close-icon.svg

<svg width="33" height="33" viewBox="0 0 33 33" fill="none" xmlns="http://www.w3.org/2000/svg">
<path d="M32.7905 29.5903L19.9905 16.7903L32.7905 3.99028L29.5905 0.790283L16.7905 13.5903L3.99053 0.790283L0.790527 3.99028L13.5905 16.7903L0.790527 29.5903L3.99053 32.7903L16.7905 19.9903L29.5905 32.7903L32.7905 29.5903Z" fill="white"/>
</svg>

<svg xmlns="http://www.w3.org/2000/svg" width="33" height="33" fill="none"><path fill="#fff" d="m32.79 29.59-12.8-12.8 12.8-12.8-3.2-3.2-12.8 12.8L3.99.79l-3.2 3.2 12.8 12.8-12.8 12.8 3.2 3.2 12.8-12.8 12.8 12.8 3.2-3.2Z"/></svg>
